build/images/page-6/unique-data-bg.svg

<svg width="465" height="66" viewBox="0 0 465 66" fill="none" xmlns="http://www.w3.org/2000/svg">
<path d="M304.92 63.9959V40.0789" stroke="#00A79E" stroke-width="2.03453" stroke-miterlimit="10" stroke-linecap="round" stroke-linejoin="round"/>
<path d="M301.541 33.1227C301.541 37.1373 304.92 40.391 304.92 40.391C304.92 40.391 308.299 37.1373 308.299 33.1227C308.299 29.1082 304.92 25.8545 304.92 25.8545C304.92 25.8545 301.541 29.1082 301.541 33.1227Z" stroke="#00A79E" stroke-width="2.03453" stroke-miterlimit="10" stroke-linecap="round" stroke-linejoin="round"/>
<path d="M309.437 41.0213C306.148 43.304 305.401 47.9488 305.401 47.9488C305.401 47.9488 309.992 48.8858 313.286 46.6031C316.574 44.3204 317.321 39.6755 317.321 39.6755C317.321 39.6755 312.725 38.7386 309.437 41.0213Z" stroke="#00A79E" stroke-width="2.03453" stroke-miterlimit="10" stroke-linecap="round" stroke-linejoin="round"/>
<path d="M309.437 51.9634C306.148 54.2461 305.401 58.891 305.401 58.891C305.401 58.891 309.992 59.8279 313.286 57.5452C316.574 55.2625 317.321 50.6177 317.321 50.6177C317.321 50.6177 312.725 49.6807 309.437 51.9634Z" stroke="#00A79E" stroke-width="2.03453" stroke-miterlimit="10" stroke-linecap="round" stroke-linejoin="round"/>
<path d="M300.884 41.0213C304.173 43.304 304.92 47.9488 304.92 47.9488C304.92 47.9488 300.33 48.8858 297.035 46.6031C293.747 44.3204 293 39.6755 293 39.6755C293 39.6755 297.596 38.7386 300.884 41.0213Z" stroke="#00A79E" stroke-width="2.03453" stroke-miterlimit="10" stroke-linecap="round" stroke-linejoin="round"/>
<path d="M300.884 51.9634C304.173 54.2461 304.92 58.891 304.92 58.891C304.92 58.891 300.33 59.8279 297.035 57.5452C293.747 55.2625 293 50.6177 293 50.6177C293 50.6177 297.596 49.6807 300.884 51.9634Z" stroke="#00A79E" stroke-width="2.03453" stroke-miterlimit="10" stroke-linecap="round" stroke-linejoin="round"/>
<path d="M84.6816 63.1725V15.009" stroke="#00A79E" stroke-width="2.03453" stroke-miterlimit="10" stroke-linecap="round" stroke-linejoin="round"/>
<path d="M81.5858 8.64931C81.5858 12.3232 84.6762 15.2986 84.6762 15.2986C84.6762 15.2986 87.7666 12.3232 87.7666 8.64931C87.7666 4.97544 84.6762 2 84.6762 2C84.6762 2 81.5858 4.97544 81.5858 8.64931Z" stroke="#00A79E" stroke-width="2.03453" stroke-miterlimit="10" stroke-linecap="round" stroke-linejoin="round"/>
<path d="M88.8086 15.8722C85.7975 17.9618 85.1183 22.2035 85.1183 22.2035C85.1183 22.2035 89.318 23.061 92.3292 20.9714C95.3403 18.8817 96.0195 14.64 96.0195 14.64C96.0195 14.64 91.8198 13.7826 88.8086 15.8722Z" stroke="#00A79E" stroke-width="2.03453" stroke-miterlimit="10" stroke-linecap="round" stroke-linejoin="round"/>
<path d="M88.8086 26.7519C85.7975 28.8415 85.1183 33.0832 85.1183 33.0832C85.1183 33.0832 89.318 33.9406 92.3292 31.851C95.3403 29.7614 96.0195 25.5197 96.0195 25.5197C96.0195 25.5197 91.8198 24.6622 88.8086 26.7519Z" stroke="#00A79E" stroke-width="2.03453" stroke-miterlimit="10" stroke-linecap="round" stroke-linejoin="round"/>
<path d="M80.9913 15.8722C84.0024 17.9618 84.6816 22.2035 84.6816 22.2035C84.6816 22.2035 80.4819 23.061 77.4707 20.9714C74.4596 18.8817 73.7804 14.64 73.7804 14.64C73.7804 14.64 77.9801 13.7826 80.9913 15.8722Z" stroke="#00A79E" stroke-width="2.03453" stroke-miterlimit="10" stroke-linecap="round" stroke-linejoin="round"/>
<path d="M80.9913 26.7519C84.0024 28.8415 84.6816 33.0832 84.6816 33.0832C84.6816 33.0832 80.4819 33.9406 77.4707 31.851C74.4596 29.7614 73.7804 25.5197 73.7804 25.5197C73.7804 25.5197 77.9801 24.6622 80.9913 26.7519Z" stroke="#00A79E" stroke-width="2.03453" stroke-miterlimit="10" stroke-linecap="round" stroke-linejoin="round"/>
<path d="M88.8086 38.5797C85.7975 40.6694 85.1183 44.9111 85.1183 44.9111C85.1183 44.9111 89.318 45.7685 92.3292 43.6789C95.3403 41.5892 96.0195 37.3475 96.0195 37.3475C96.0195 37.3475 91.8198 36.4901 88.8086 38.5797Z" stroke="#00A79E" stroke-width="2.03453" stroke-miterlimit="10" stroke-linecap="round" stroke-linejoin="round"/>
<path d="M80.9913 38.5797C84.0024 40.6694 84.6816 44.9111 84.6816 44.9111C84.6816 44.9111 80.4819 45.7685 77.4707 43.6789C74.4596 41.5892 73.7804 37.3475 73.7804 37.3475C73.7804 37.3475 77.9801 36.4901 80.9913 38.5797Z" stroke="#00A79E" stroke-width="2.03453" stroke-miterlimit="10" stroke-linecap="round" stroke-linejoin="round"/>
<path d="M255 63.7863V49" stroke="#00A79E" stroke-width="2.03453" stroke-miterlimit="10" stroke-linecap="round" stroke-linejoin="round"/>
<path d="M225 64.1364V55" stroke="#00A79E" stroke-width="2.03453" stroke-miterlimit="10" stroke-linecap="round" stroke-linejoin="round"/>
<path d="M239 64.1364V55" stroke="#00A79E" stroke-width="2.03453" stroke-miterlimit="10" stroke-linecap="round" stroke-linejoin="round"/>
<path d="M344 64.1364V55" stroke="#00A79E" stroke-width="2.03453" stroke-miterlimit="10" stroke-linecap="round" stroke-linejoin="round"/>
<path d="M358 64.1364V55" stroke="#00A79E" stroke-width="2.03453" stroke-miterlimit="10" stroke-linecap="round" stroke-linejoin="round"/>
<path d="M151.117 63.7862V56.3931" stroke="#00A79E" stroke-width="2.03453" stroke-miterlimit="10" stroke-linecap="round" stroke-linejoin="round"/>
<path d="M16.1826 54.9956V63.1724" stroke="#00A79E" stroke-width="2.03453" stroke-miterlimit="10" stroke-linecap="round" stroke-linejoin="round"/>
<path d="M27.4639 57.8804V63.1726" stroke="#00A79E" stroke-width="2.03453" stroke-miterlimit="10" stroke-linecap="round" stroke-linejoin="round"/>
<path opacity="0.56" d="M382.2 63.4792C381.43 61.8268 381 59.987 381 58.045C381 50.9415 386.739 45.1837 393.82 45.1837C395.897 45.1837 397.856 45.6833 399.593 46.5635C402.231 40.1754 408.496 35.6838 415.815 35.6838C422.652 35.6838 428.567 39.6076 431.471 45.3256C432.093 45.2348 432.727 45.1837 433.372 45.1837C440.453 45.1837 446.192 50.9415 446.192 58.045C446.192 59.987 445.762 61.8268 444.992 63.4792H382.2Z" fill="#00A79E"/>
<path d="M2.00001 64L463 64" stroke="#00A79E" stroke-width="2.03453" stroke-miterlimit="10" stroke-linecap="round" stroke-linejoin="round"/>
</svg>

<svg width="465" height="66" viewBox="0 0 465 66" fill="none" xmlns="http://www.w3.org/2000/svg"><path d="M304.92 63.996V40.079m-3.379-6.956c0 4.014 3.379 7.268 3.379 7.268s3.379-3.254 3.379-7.268c0-4.015-3.379-7.268-3.379-7.268s-3.379 3.253-3.379 7.268zm7.896 7.898c-3.289 2.283-4.036 6.928-4.036 6.928s4.591.937 7.885-1.346c3.288-2.283 4.035-6.928 4.035-6.928s-4.596-.936-7.884 1.346zm0 10.942c-3.289 2.283-4.036 6.928-4.036 6.928s4.591.937 7.885-1.346c3.288-2.282 4.035-6.927 4.035-6.927s-4.596-.937-7.884 1.345zm-8.553-10.942c3.289 2.283 4.036 6.928 4.036 6.928s-4.59.937-7.885-1.346C293.747 44.32 293 39.675 293 39.675s4.596-.936 7.884 1.346zm0 10.942c3.289 2.283 4.036 6.928 4.036 6.928s-4.59.937-7.885-1.346c-3.288-2.282-4.035-6.927-4.035-6.927s4.596-.937 7.884 1.345zM84.682 63.172V15.01m-3.096-6.36c0 3.673 3.09 6.649 3.09 6.649s3.09-2.976 3.09-6.65c0-3.674-3.09-6.649-3.09-6.649s-3.09 2.975-3.09 6.65zm7.223 7.222c-3.011 2.09-3.69 6.331-3.69 6.331s4.199.858 7.21-1.232 3.69-6.331 3.69-6.331-4.2-.857-7.21 1.232zm0 10.88c-3.011 2.09-3.69 6.331-3.69 6.331s4.199.858 7.21-1.232 3.69-6.331 3.69-6.331-4.2-.858-7.21 1.232zm-7.818-10.88c3.011 2.09 3.69 6.331 3.69 6.331s-4.2.858-7.21-1.232c-3.011-2.09-3.69-6.331-3.69-6.331s4.2-.857 7.21 1.232zm0 10.88c3.011 2.09 3.69 6.331 3.69 6.331s-4.2.858-7.21-1.232c-3.011-2.09-3.69-6.331-3.69-6.331s4.2-.858 7.21 1.232zm7.818 11.828c-3.011 2.09-3.69 6.331-3.69 6.331s4.199.858 7.21-1.232 3.69-6.332 3.69-6.332-4.2-.857-7.21 1.233zm-7.818 0c3.011 2.09 3.69 6.331 3.69 6.331s-4.2.858-7.21-1.232c-3.011-2.09-3.69-6.332-3.69-6.332s4.2-.857 7.21 1.233zM255 63.786V49m-30 15.136V55m14 9.136V55m105 9.136V55m14 9.136V55m-206.883 8.786v-7.393M16.183 54.996v8.176m11.281-5.292v5.293" stroke="#00A79E" stroke-width="2.035" stroke-miterlimit="10" stroke-linecap="round" stroke-linejoin="round"/><path opacity=".56" d="M382.2 63.48a12.827 12.827 0 01-1.2-5.435c0-7.104 5.739-12.861 12.82-12.861 2.077 0 4.036.5 5.773 1.38 2.638-6.389 8.903-10.88 16.222-10.88 6.837 0 12.752 3.924 15.656 9.642a13.118 13.118 0 011.901-.142c7.081 0 12.82 5.758 12.82 12.861 0 1.942-.43 3.782-1.2 5.434H382.2z" fill="#00A79E"/><path d="M2 64h461" stroke="#00A79E" stroke-width="2.035" stroke-miterlimit="10" stroke-linecap="round" stroke-linejoin="round"/></svg>
